X: 4
T: Behind The Bush In The Garden
R: jig
M: 6/8
L: 1/8
K: Ador
c2A AGE c2A AGE|G2E D2E ~G3 EFG|
A2B c2d eag e2d|c2A AGE ~A3 A2B:|
c2B c2d eag e2d|cBA Bcd ~e3 G2B|
c2B c2d eag e2d|cBA AGE ~A3 A2B:|


Tune 1888	Setting 15318

